**kern	**kern	**kern
*staff1	*staff2	*staff3
=1-	=1-	=1-
*clefG2	*clefG2	*clefF4
*k[]	*k[]	*k[]
*met(c)	*met(c)	*met(c)
*M4/4	*M4/4	*M4/4
4ee\	8g\L	1C
4dd\	8ee\	=2
4cc\	8f\	1C
4b\	8dd\J	=3
=2	8e/L	4E\ 4G\
4cc\	8cc/	4D\ 4G\
8b\	8d/	4BB\ 4G\
8a/	8b/J	4C\ 4G\
4g/	=2	=4
4a/	8e/L	2.GG/ 2.G/
=3	8cc/	4r
4cc\	8g/ 8b/	=5
4b\	8f/J 8a/	1DD
4dd\	8e/L 8g/	=6
!!linebreak:original
4cc\	8c/	2GG/
=4	8f/ 8a/	4AA/
(2ee\	8c/J	4BB/
4dd\)	=3	=7
4r	4g/ 4cc/	2C\ 2G\
=5	4f/ 4b/	4D\ 4G\
4ff\	4f/ 4dd/	4D\ 4F#\
4ee\	4e/ 4cc/	=8
4dd\	=4	8GG\L
*	*^	*
4cc\	4e/	2c\	8D\
=6	4f#/	.	8G\
!!linebreak:original
(4cc\	4g/	4B\	8B\J
*	*v	*v	*
2b\)	4r	4r
8a/	=5	8d\L
8g/	8A/L	8c\J
=7	8a/	=9
*	*	*^
aq/	8g/	2B/	1G
8g/	8a/J	4d/	.
8f#/	8f/L	4c/	.
8g/	8a/	=10	=10
8a/	8e/	2B/	1G
4.b\	8cc/J	4d/	.
8a/	=6	8c/L	.
!!linebreak:original
=8	8d/L	8B/J	.
*	*	*v	*v
4g/	8f/	=11
!!linebreak:original
4r	8d/	1C
4r	8b/J	=12
8b\	8c/L	1C
8cc\	8f/	=13
*	*	*^
=9	8d/ 8a/	4c/	2.G\
(2dd\	8f/J 8g/	8f/L	.
4b\)	=7	8e-/J	.
8cc\L	2e/ 2g/	4d/	.
8a\J	4d/	4B/	4G\
*	*	*v	*v
=10	4c/	=14
1g	=8	2C\ 2c\
=11	4B/	4FF/
!!linebreak:original
(4.ee\	4r	4AA-/
8cc\)	8d/L	=15
4g/	8g/	2C/
4r	8f/ 8b/	4FF/
=12	8cc/J	4AA-/
(4.ee-\	=9	=16
!!linebreak:original
8cc\)	[2f/ 2dd/	2C/
2g/	4f/] 4b/	4c\
=13	8f/ 8cc/	4B\
4ee-\	8a/	=17
8dd\L	=10	4A\ 4c\
*	*^	*
8cc\J	(2dd/	2f\ [2g\	4G\ 4c\
(4b\	4b/)	2f\ 2g\]	4F\ 4c\
8cc\)	8a/L	.	4E\ 4c\
8dd\	8g/J	.	=18
*	*v	*v	*
=14	=11	4D/ 4F/
!!linebreak:original
4cc\	8e/L 8g/	4r
4r	8G/	2F/ 4B/
8cc\	8c/ 8e/	. 4d/
8cc\	8G/J	=19 =19
8b-\	8e/L 8g/	2E\ 4c/
8a-/	8G/	2B-/ .
=15	8c/ 8e/	. 4F\
4a-/	8G/J	4F/ 4AA\
4g/	=12	=20 =20
4.cc\	8g/L	2G/ 2GG\
8a-/	8G/	4A/ 4FF\
=16	8c/ 8e-/	4F/ 4GG\
!!linebreak:original
*	*	*v *v
4a-/	8G/J	=21
*	*	*^
*	*	*	*^
4g/	8g/L	2CC\	4E/ 4c/	1C
*	*	*	*v	*v
4g/	8G/	.	4E/ 4G/
4g/	8c/ 8e-/	2FF\	4F/ 4A/
=17	8G/J	.	8A/L 8c/
[1cc	=13	.	8F/J 8A/
*	*^	*	*
=18	4ee-/	2g\	=22	=22
8cc\L]	8dd/L	.	2F/ 2A/	1CC 1C
8b\J	8cc/J	.	4E/ 4G/	.
*	*v	*v	*	*
8ff\L	4g/ 4b/	4r	.
*	*	*v	*v
8ee\J	4f/ 4g/	==
*	*	*-
8ee\L	=14
*	*^
8dd\J	2g/	2e-\
8cc\L	8a-/L 8cc/	2c\
8b\J	8a-/J 8cc/	.
=19	8g/ 8b-/	.
4cc\	8f/ 8a-/	.
4r	=15	=15
4r	4f/ 4a-/	2c\
8cc/L	4e/ 4g/	.
8f/J	2a-/ 2cc/	4c\
=20	.	4f\
*	*v	*v
(2e/	=16
!!linebreak:original
4d/	4f/ 4a-/
8f/L	4e/ 4g/
8e/J)	4e/ 4g/
=21	4d/ 4g/
4c/	=17
4r	4e/ 4cc/
2r	4e/ 4b/
=22	4f/ 4a/
1r	4g/
==	=18
*-	*
4f/
4r
[2g/
=19
4g/]
2g/
4f/
=20
*^
2c/ 2e/	2r
4c\	2d/
4B\	.
*v	*v
=21
1r
=22
1r
==
*-
